X: 19
T:Humours of California
% Nottingham Music Database
S:Lesley Dolman
M:4/4
L:1/8
R:Hornpipe
K:G
(3DEF|"G"GFGB "D7"AGED|"G"GBdg "C"e2(3"D7"def|"G"gfgd "Em"edBG|\
"Am"ABAG "D7"E2(3DEF|
"G"GFGB "D7"AGED|"G"GBdg "C"e2(3"D7"def|"G"gfgd "Em"edBG|(3"D7"ABAGF "G"G2:|
(3def|"Em"gfeg "D"fedf|"C"edef "G"edBd|"Em"gfgd edBG|"Am"ABAG "D7"E2(3DEF|
"G"GFGB "D7"AGED|"G"GBdg "C"e2(3"D7"def|"G"gfgd "Em"edBG|(3"D7"ABAGF "G"G2:|<end>
<start>
